X: 6
T: Grimaldy's hornpipe
C: Daniel Dow (1732-1783)
R: hornpipe, reel
M: C|
L: 1/8
N: This is not a particularly rare tune, but a unique version of strain 2 with its 4th string notes.
Z: 2010 John Chambers <jc:trillian.mit.edu>
B: Anonymous manuscript tune book (1800-1840) p.83
F: http://www.asaplive.com/archive/browse_by_collection.asp
N: The asaplive.com web site is complex, and links to its files don't usually work.
K: G
D2 |\
G2G2 GBAc | B2B2 Bdce | dgfe dcBA | GBdB cAFD |
G2G2 GBAc | B2B2 Bdce | dgfe dcBA | A2G2 G2 :|
|: (DC) |\
B,GDG | B,GDG | CGEG CGEG | cAFD | cAFD | BGDB, BGDC |
B,GDG B,GDG | CGEG CGEG | cAFD cAFD | G2G2 G2 :|


%%sep 5 1 500

